**kern	**kern	**dynam
*part1	*part1	*part1
*staff2	*staff1	*
*I"Piano	*	*
*clefF4	*clefG2	*
*k[f#c#]	*k[f#c#]	*
*M2/4	*M2/4	*
=1	=1	=1
*^	*	*
2E 2G 2A	8r	(2e	p
.	8DD	.	.
.	8.BBBL	.	.
.	16CC#Jk	.	.
=	=	=	=
4D 4F# 4A	4DD	4d	.
[4F# [4A	[4D	4ryy	.
=	=	=	=
8F#L] 8A]	8DL]	2ryy	.
8F# 8A	8D	.	.
8A 8d	8F#	.	.
8dJ> 8f#>	8AJ	.	.
*v	*v	*	*
=	=	=
4d	2f# 2a	.
4cn	.	.
=	=	=
!	!	!LO:DY:a
4B	4fn 4g#X	>
4B-X	[4d 4gn	.
=	=	=
4A	4d] 4f#	.
[4AA	4G 4A 4c# 4e	]
=	=	=
*^	*	*
[4.F#	[4.DD 4.AA_	[4.d)	.
8F#]	8DD] 8AA]	8d]	.
=!|:	=!|:	=!|:	=!|:
2A	4D	(4d 4f#	p
.	4AA	4c# 4e	.
=	=	=	=
*	*	*^	*
2A	4FF#	4.a	4d	.
.	4AA	.	4c#	.
.	.	8g	.	.
*	*	*v	*v	*
=	=	=	=
4A	4D	4d 4f#	.
4G 4B	4GG	4e	.
=	=	=	=
4F# 4A	2AA	4d	.
4E 4A 4c#	.	4r	.
*v	*v	*	*
=	=	=
*-	*-	*-
!!!system-decoration: {(s1,s2)}
!!!RDF**kern: > = above
